X:1004
T:They took frae me my Wife yestreen.
S:Aird v6 p3
M:C|
L:1/8
Q:1/4=120
I: :: :: ||
Z:Jack Campin * www.campin.me.uk * 2009
K:A Minor
e>AA>B e>AA<g|BG`G>A B>AGB |e>AAB  e>A`A<e|B<G`G>A  B>A A2:|
a>ge>a g>e g2|e>dg>d e>de<g|a>gea  g<eTg2 |B<(GG>)A B<A A2:|
A>aB>a c>aTe2|d>eB>e d<GG>B|A>aB>a c>a e2 |B<G`G>A  B<A A2:|
<end>
<start>
